X:2382
T:C'est à Caden dedans la jolie ville - Tour
C:Grandjean/Lemou
M:4/4
L:1/8
K:G
e2ee d2ef|g2fg ~e2d2|\
e2ee d3e|g2 ~f2 e4:|\
|:A2 Bc d2dd|d2cd e3e|\
A2 Bc d2dd|~c2 Bc A4:|


